X:485
T:Cronin's Hornpipe
M:C|
L:1/8
C:Goes with Chief O'Neill's
K:G major
N:Played before Chief O'Neil's
BA | "G"GABc dBde | "C"gage "G"dega | "Em"bage dBGB | "D"cAAG AcBA |
"G"GABc dBde | "C"gage "G"dega | "Em"bage "D"dBA=c | "G"B2 G2 G2 :|
|: fg | "D"afd^c d2 ga | "Em"beed e2 ga | "G"(3bag (3agf ge dB |"D"BAAG AcBA|
| "G"GABc dBde | "C"gage "G"dega | "Em"bage "D"dBA=c | "G"B2 G2 G2 :|

%%newpage
%%scale 0.8

